X:1
T:Ljubljana, 76.76.77.76
T:Ljubljana, 76.76.77.76
T:James McGranahan, 1886
T:Public Domain Courtesy of the Cyber Hymnal™
C:James McGranahan, 1886
Z:Public Domain
Z:Courtesy of the Cyber Hymnal™
%%score 1 ( 2 3 )
L:1/8
Q:1/4=110
M:2/2
K:G
V:1 treble 
V:2 bass 
V:3 bass 
V:1
 [DB]2 [DB]2 [CA]2 [B,G]2 | [CD]2 [CE]2 [CF]4 | [B,G]2 [DB]2 [Dd]2 [GB]2 | [GB]4 [FA]4 | %4
 [DB]2 [DB]2 [CA]2 [B,G]2 | [CD]2 [CE]2 [CF]4 | [B,G]2 [DB]2 [Dd]2 [DB]2 | [CA]4 [B,G]4 | %8
 [Gd]2 [Gd]2 [Gd]2 [Gd]2 | [Ge]2 [Ge]2 [Ge]4 | [Gd]2 [Ge]2 [Gd]2 [GB]2 | [GB]2 [FA]2 [FA]4 | %12
 [DB]2 [DB]2 [CA]2 [B,G]2 | [CD]2 [CE]2 [CF]4 | [B,G]2 [DB]2 [Dd]2 [DB]2 | [CA]4 [B,G]4 |] %16
V:2
 G,2 G,2 [G,,D,]2 [G,,D,]2 | [D,F,]2 [D,G,]2 [D,A,]4 | G,2 G,2 [F,A,]2 [G,D]2 | [D,D]4 [D,D]4 | %4
 G,2 G,2 [G,,D,]2 [G,,D,]2 | [D,F,]2 [D,G,]2 [D,A,]4 | G,2 G,2 [F,A,]2 G,2 | [D,F,]4 [G,,G,]4 | %8
 [G,B,]2 [G,B,]2 [G,B,]2 [G,B,]2 | [C,C]2 [C,C]2 [C,C]4 | [G,B,]2 [G,C]2 [G,B,]2 [G,D]2 | %11
 [D,D]2 [D,D]2 [D,D]4 | G,2 G,2 [G,,D,]2 [G,,D,]2 | [D,F,]2 [D,G,]2 [D,A,]4 | G,2 G,2 [F,A,]2 G,2 | %15
 [D,F,]4 [G,,G,]4 |] %16
V:3
 G,2 G,2 x4 | x8 | G,2 G,2 x4 | x8 | G,2 G,2 x4 | x8 | G,2 G,2 G,2 x2 | x8 | x8 | x8 | x8 | x8 | %12
 G,2 G,2 x4 | x8 | G,2 G,2 G,2 x2 | x8 |] %16

